korla/categories/symbolic/slideshow-symbolic.svg

<svg style="clip-rule:evenodd;fill-rule:evenodd;stroke-linejoin:round;stroke-miterlimit:2" version="1.1" viewBox="0 0 16 16" xmlns="http://www.w3.org/2000/svg">
 <g transform="translate(.5 .5)">
  <path d="m7.5 1c-3.59 0-6.5 2.91-6.5 6.5s2.91 6.5 6.5 6.5 6.5-2.91 6.5-6.5-2.91-6.5-6.5-6.5zm0 1c3.04 0 5.5 2.46 5.5 5.5s-2.46 5.5-5.5 5.5-5.5-2.46-5.5-5.5 2.46-5.5 5.5-5.5zm-0.5 1.226v3.774l-2.251 1.083-0.393 1.033 0.971 0.183 2.673-1.299v-4.774l-0.5-0.801-0.5 0.801z" style="fill-rule:nonzero;fill:rgb(223,223,223)"/>
 </g>
</svg>

<svg xmlns="http://www.w3.org/2000/svg" width="16" height="16" version="1.1">
 <path style="fill:#dfdfdf" d="M 7.5,1 C 3.91,1 1,3.91 1,7.5 1,11.09 3.91,14 7.5,14 11.09,14 14,11.09 14,7.5 14,3.91 11.09,1 7.5,1 Z M 7.5,2 C 10.54,2 13,4.46 13,7.5 13,10.54 10.54,13 7.5,13 4.46,13 2,10.54 2,7.5 2,4.46 4.46,2 7.5,2 Z M 7,4 V 7 H 4.75 V 8 H 8 V 4 Z"/>
</svg>
